X:1
T:Title
%%score { ( 1 4 ) | ( 2 3 ) }
L:1/8
M:6/8
K:Ab
V:1 treble nm="Grand Piano"
V:4 treble 
V:2 bass 
V:3 bass 
V:1
 z3 z2[Q:1/4=83] c | [Ec]>cc cBA | [CE]CF E2 A | [B,G]>GG GdF | [CE]cc c2 c | [ce]>ee ecB | %6
 [FA]FB A2 d |[M:7/8] [Fd]c3/2c[=Dc]B3/2A |[M:3/4] [EG]A B .[CA]3 | BB BB AB | %10
 [Fd][Ec] [Ec] .[Ec]3 | AA A[=DA] [DG][DA] | cB B .B3 | cc cc Bc | [Ge][Fd] [Fd] [Fd]2 F | %15
 z c- c3 z |[M:5/8] B3 [CA]2 |] %17
V:2
 z3 z2 E | z z/ E/E EDC | z A,D C2 C | z z/ B,/B,[K:treble] EFD | z E[K:treble]A E2 E/A/ | %5
 z z/ c/c cAE | z D[K:treble]G F2 F |[M:7/8][K:bass] z E3/2.E3/2 z/[K:treble] =D3/2F | %8
[M:3/4][K:bass] z C D .A,,3 | [E,G,D][E,G,D] [E,G,D][E,G,D] [E,A,C][E,G,E] | %10
 [A,,A,][A,,A,] [A,,A,] .[A,,A,]3 | [F,A,C][F,A,C] [F,C][B,,F,] [B,,B,][B,,F,] | %12
 [E,A,E][E,G,E] [E,G,E] .[E,G,E]3 | [A,E][A,E] [A,E][A,E] [A,D][A,E] | %14
 [D,A,][D,A,] [D,A,] [D,A,]2 D | z E- E3 z |[M:5/8] [E,G,D]3 [A,,A,]2 |] %17
V:3
 x6 | A,,6 | A,,6 | E,,6[K:treble] | A,,6[K:treble] | A,6 | D,6[K:treble] | %7
[M:7/8][K:bass] [A,,A,]3 z/ [B,,A,]/- [B,,A,]2[K:treble] z |[M:3/4][K:bass] E,4 z2 | x6 | x6 | x6 | %12
 x6 | x6 | x6 | .C2 E,E, E,[E,A,C] |[M:5/8] x5 |] %17
V:4
 x6 | x6 | x6 | x6 | x6 | x6 | x6 |[M:7/8] x7 |[M:3/4] x6 | x6 | x6 | x6 | x6 | x6 | x6 | %15
 .E2 A,A, A,A |[M:5/8] x5 |] %17

